app/static/img/hero.svg

<?xml version="1.0" encoding="UTF-8"?>
<svg width="1440px" height="741px" viewBox="0 0 1440 741" version="1.1" xmlns="http://www.w3.org/2000/svg" xmlns:xlink="http://www.w3.org/1999/xlink">
    <title>Desktop HD</title>
    <defs>
        <linearGradient x1="90.74507%" y1="96.4332273%" x2="16.019753%" y2="25.3107211%" id="linearGradient-1">
            <stop stop-color="#6D7278" offset="0%"></stop>
            <stop stop-color="#0AC18E" offset="100%"></stop>
        </linearGradient>
        <linearGradient x1="86.4475487%" y1="94.5255111%" x2="18.3722781%" y2="24.992828%" id="linearGradient-2">
            <stop stop-color="#223543" offset="0%"></stop>
            <stop stop-color="#000000" offset="100%"></stop>
        </linearGradient>
    </defs>
    <g id="Page-1" stroke="none" stroke-width="1" fill="none" fill-rule="evenodd">
        <g id="Desktop-HD">
            <path d="M152.69721,-17.2046763 L1323.13373,-582.806113 C1372.60423,-606.712222 1432.09604,-586.22824 1456.36227,-536.933395 L1733.54197,26.1341626 C1757.93389,75.6843256 1737.53911,135.626228 1687.98894,160.018148 C1687.7915,160.115343 1687.59374,160.211885 1687.39566,160.307774 L517.355566,726.714527 C467.877354,750.666521 408.342994,730.190876 384.064866,680.871873 L106.488738,116.999 C82.0968174,67.4488368 102.491602,7.50693452 152.041766,-16.8849861 C152.259858,-16.9923458 152.478341,-17.0989099 152.69721,-17.2046763 Z" id="Rectangle-Copy" fill="url(#linearGradient-1)"></path>
            <path d="M48.6981618,-90.0992976 L1271.59948,-531.259115 C1323.34103,-549.924802 1380.44347,-523.298174 1399.40456,-471.664141 L1615.44777,116.655589 C1634.48575,168.499006 1607.89168,225.959729 1556.04827,244.997707 C1555.89102,245.05545 1555.73363,245.112799 1555.5761,245.169751 L332.983877,687.171288 C281.229908,705.881806 224.084288,679.259031 205.113926,627.599742 L-11.2383779,38.4382922 C-30.2763558,-13.4051244 -3.68229311,-70.8658479 48.1611235,-89.9038257 C48.3399497,-89.9694944 48.5189632,-90.0346519 48.6981618,-90.0992976 Z" id="Rectangle" fill="url(#linearGradient-2)" transform="translate(802.092743, 78.000000) rotate(-1.000000) translate(-802.092743, -78.000000) "></path>
        </g>
    </g>
</svg>

<svg width="1440" height="741" xmlns="http://www.w3.org/2000/svg"><defs><linearGradient x1="90.745%" y1="96.433%" x2="16.02%" y2="25.311%" id="a"><stop stop-color="#6D7278" offset="0%"/><stop stop-color="#0AC18E" offset="100%"/></linearGradient><linearGradient x1="86.448%" y1="94.526%" x2="18.372%" y2="24.993%" id="b"><stop stop-color="#223543" offset="0%"/><stop offset="100%"/></linearGradient></defs><g fill="none" fill-rule="evenodd"><path d="M152.697-17.205l1170.437-565.601c49.47-23.906 108.962-3.422 133.228 45.873l277.18 563.067c24.392 49.55 3.997 109.492-45.553 133.884l-.593.29-1170.04 566.407c-49.479 23.952-109.013 3.476-133.291-45.843L106.489 116.999c-24.392-49.55-3.997-109.492 45.553-133.884l.655-.32z" fill="url(#a)"/><path d="M48.698-90.1L1271.6-531.26c51.742-18.665 108.844 7.962 127.806 59.596l216.043 588.32c19.038 51.843-7.556 109.304-59.4 128.342l-.472.172L332.984 687.17c-51.754 18.71-108.9-7.912-127.87-59.571L-11.238 38.438c-19.038-51.843 7.556-109.304 59.4-128.342l.536-.195z" fill="url(#b)" transform="rotate(-1 802.093 78)"/></g></svg>
